!!!OTL: Lotus Blossoms
!!!ARE: China
!!!AMD: Pentatonic
**kern
=1-
*clefG2
*k[b-]
*M4/4
*MM96
{4a/
8a/L
8cc/J
(8dd\L
8ff\J)
(8ff\L
8dd\J)
=2
4cc\
8cc\L
8dd\J
4cc\}
4r
=3
{4a/
8a/L
8cc/J
(8dd\L
8ff\J)
(8ff\L
8dd\J)
=4
4cc\
(8cc\L
8dd\J)
4cc\}
4r
=5
{4cc\
4cc\
4cc\
(8a\L
8cc\J)
=6
4dd\
(8dd\L
8ff\J)
2cc\}
=7
{4a/
(8g/L
8a/J)
4cc\
8a/L
8g/J
=8
4f/
(8f/L
8g'/J)
2f/}
=9
{8a/L
8g/J
8f/L
8a/J
4g/
8g/L
8a/J
=10
4cc\
8dd\L
8ff\J
2cc\}
=11
{4a/
(8g/L
8a/J)
4cc\
8a/L
8g/J
=12
4f/
(8f/L
8g/J)
2f/}
==
*-
